X:14
T:Braes of Lochiel, The
T:Braighe Lochiall
R:Slow Air or Waltz
S:Simon Fraser Collection
N:No.44
O:Scottish
M:3/4
L:1/8
K:A Minor
A|:E4 ^G2|A4 c>d|e4 c2|d2e2g2|e4 G2|A4 c2|1 d4 cB|e4 A2:|2 d4 c2|B2 e2||
|:B>A|G E3 ^G2|A4 ce|a3 e g2|1 e4 d>c|B2e2A2|G E3 ^G2|A4:|2 e4 d>B|
c2e2a2|Be3 ^G2|A4||

